X:311
T:Rip the Calico
Z: id:dc-reel-289
M:C
L:1/8
K:D Major
c|d3c defd|edBd egfe|d3c defd|efdB A3:|!
B|dBB2 gefd|edBd egfe|dBB2 gefd|efdB A3:|!
e|faaf gefd|edBd egfe|faaf gefd|efdB A3|!
e|faaf gefd|edBd egfe|faaf bfaf|e3f gef|]!

